X:1
T:Title
%%score { 1 | ( 2 3 ) }
L:1/8
M:3/2
K:F
V:1 treble nm="Grand Piano"
V:2 bass 
V:3 bass 
V:1
 z4 z4[Q:1/4=112] A2 G2 | B4 A4 F2 [EG]2 | F8 C2 F2 | A4 c4 [GB]2 [FA]2 |[M:4/4] [EG]8 | %5
[M:2/4] A2 B2 |[M:6/4] c4 A2- A2 G2 A2 | [Ac]4 B2- B3/2 z/ A2 G2 | c4 [Fd]2- [Fd]2 [EA]2 [EG]2 | %9
[M:4/4] F8 |] %10
V:2
 z4 z4 [F,CF]2 [F,B,F]2 | [F,DF]4 [F,CF]4 [C,A,]2 [C,B,]2 | [F,A,C]8 [F,A,]2 [F,A,C]2 | %3
 [F,CF]4 [A,CF]4[K:bass] [E,C]2 [F,C]2 |[M:4/4] [C,C]8 |[M:2/4] [F,CF]2 [G,CE]2 | %6
[M:6/4][K:treble] [A,CF]4 [F,CF]2- [F,CF]2 [B,DF]2 [A,D^F]2 | D4- [DG]2- [DG]3/2 z/ [CE]2 [B,CE]2 | %8
 [A,CF]4[K:bass] [D,A,]2- [D,A,]2 [C,C]2 [C,B,]2 |[M:4/4] [F,A,]8 |] %10
V:3
 x12 | x12 | x12 | x8[K:bass] x4 |[M:4/4] x8 |[M:2/4] x4 |[M:6/4][K:treble] x12 | %7
 ^F,4 G,2- G,2 z2 z2 | x4[K:bass] x8 |[M:4/4] x8 |] %10

